!!!COM: Bach, Johann Sebastian
!!!OTL@@DE: 90. Hast du denn, Liebster, dein Angesicht
!!!OTL@EN: Hast Thou then, Jesus, hidden Thy countenance
!!!SCA: BWV 57.8
**harm	**root	**kern	**kern	**kern	**kern
*staff2	*	*staff2	*staff2	*staff1	*staff1
*Iorgan	*Ipiano	*Iorgan	*Iorgan	*Iorgan	*Iorgan
*>[A,A,B]	*>[A,A,B]	*>[A,A,B]	*>[A,A,B]	*>[A,A,B]	*>[A,A,B]
*>norep[A,B]	*>norep[A,B]	*>norep[A,B]	*>norep[A,B]	*>norep[A,B]	*>norep[A,B]
*>A	*>A	*>A	*>A	*>A	*>A
!	!	!bass	!tenor	!alto	!sprno
*	*	*clefF4	*clefF4	*clefG2	*clefG2
*k[f#c#g#]	*k[f#c#g#]	*k[f#c#g#]	*k[f#c#g#]	*k[f#c#g#]	*k[f#c#g#]
*A:	*A:	*A:	*A:	*A:	*A:
*M3/4	*M3/4	*M3/4	*M3/4	*M3/4	*M3/4
*MM80	*MM80	*MM80	*MM80	*MM80	*MM80
=1-	=1-	=1-	=1-	=1-	=1-
I	4BB-	4A	4c#	4e	4a
I	4BB-	4A	4c#	4e	4a
Vb	4FF	4G#	4B	4e	4ee
=2	=2	=2	=2	=2	=2
I	4.BB-	4.A	4.A	4.e	4.cc#
Vb	8FF	8G#	8B	8e	8b
vi	4GG	4F#	8c#L	4f#	4a
.	.	.	8d#J	.	.
=3	=3	=3	=3	=3	=3
V	4FF	4E	4e	4B	4g#
Vc	4FF	4BB	4e	4B	8aL
.	.	.	.	.	8g#
V7d	4FF	4D	4G#	4B	8f#
.	.	.	.	.	8eJ
=4	=4	=4	=4	=4	=4
Ib	4BB-	4C#	4A	4e	4a
viiob	4AA	4BB	4D	8f#L	4b
.	.	.	.	8g#	.
I	4BB-	4AA	4E	8a	8cc#L
.	.	.	.	8bJ	8ddJ
=5	=5	=5	=5	=5	=5
V7	2FF	2E	4e	2g#	2b
.	.	.	4d	.	.
I;	4BB-;	4AA;	4c#;	4e;	4a;
=6:|!	=6:|!	=6:|!	=6:|!	=6:|!	=6:|!
*>B	*>B	*>B	*>B	*>B	*>B
I	4BB-	4AA	4c#	4a	4ee
viiob	4AA	4BB	4d	4g#	8ddL
.	.	.	.	.	8cc#
Ib	4BB-	4C#	4e	4e	8b
.	.	.	.	.	8aJ
=7	=7	=7	=7	=7	=7
!!linebreak: 2
IV;	2EE-;	2D;	2d;	2a;	2ff#;
r	4r	4r	4r	4r	4r
=8	=8	=8	=8	=8	=8
I	4BB-	4A	4e	4a	4cc#
IVb	4EE-	8G#L	4f#	4a	4dd
.	.	8F#	.	.	.
V	4FF	8E	4B	8g#L	4ee
.	.	8DJ	.	8f#J	.
=9	=9	=9	=9	=9	=9
iii7	4DD	4C#	4B	4e	4ee
Ib	4BB-	4C#	4A	4a	8ff#L
.	.	.	.	.	8ee
IV	4EE-	4D	4A	4f#	8dd
.	.	.	.	.	8cc#J
=10	=10	=10	=10	=10	=10
V;	2FF;	2E;	2e;	2g#;	2b;
r	4r	4r	4r	4r	4r
=11	=11	=11	=11	=11	=11
Ib	4BB-	4C#	4A	4e	4e
Vb/V	4CC	4D#	8G#L	4B	4f#
.	.	.	8F#J	.	.
viioD7/VI	4FF#	4E#	4dy	4B	4g#
=12	=12	=12	=12	=12	=12
vi	4GG	4F#	4c#	4A	4a
Vb	4FF	4G#	4B	4e	4b
I	4BB-	4A	4A	4e	8cc#L
.	.	.	.	.	8ddJ
=13	=13	=13	=13	=13	=13
Ic	4BB-	2E	4A	4.e	2b
V7	4FF	.	4G#	.	.
.	.	.	.	8d	.
I;	4BB-;	4AA;	4E;	4c#;	4a;
==	==	==	==	==	==
*-	*-	*-	*-	*-	*-
!!!ENC: Craig Stuart Sapp
!!!END: 2004/12/06/
!!!ONB: Harmony and Root analysis done manually by Craig Sapp
!!chor2scor: -l 2 -s 0.6 -o %b.pmx
